build/assets/images/content/logo.svg

<svg width="71" height="82" viewBox="0 0 71 82" fill="none" xmlns="http://www.w3.org/2000/svg">
<path fill-rule="evenodd" clip-rule="evenodd" d="M35.2842 18.3359L34.0914 38.3081H34.1191L30.0137 18.7243L31.8168 38.6409H31.8445L24.8543 19.8893L29.6254 39.3344H29.6531L19.9445 21.8311L27.5727 40.333L15.3675 24.4663L25.6865 41.6367L11.2344 27.7395L23.9944 43.1901H24.0221L7.62833 31.5952L22.5797 44.9932V44.9654L4.66025 35.9502L21.4424 46.9626L2.35791 40.6936L20.6102 49.0985L0.804526 45.7421L20.1109 51.3454V51.3177L0.027832 50.9571L19.9445 53.62V53.5923L0.027832 56.2275L20.1109 55.8946V55.8669L0.804526 61.4424L20.6379 58.1137H20.6102L2.35791 66.4632L21.4701 60.2496L9.51459 68.0443H10.9848L22.6074 62.2191L16.172 67.9611H18.4466L24.0499 64.0222H24.0221L20.7489 67.9611H23.2454L25.7142 65.5755L24.2718 67.9611H26.7683L27.6005 66.8793V66.8515L27.1566 67.9611H29.6254L29.6809 67.8779V67.8501L29.6531 67.9611H40.9429L40.9152 67.8501L40.9707 67.9611H43.4394L42.9679 66.8515L43.8278 67.9611H46.3243L44.8541 65.5478L47.3507 67.9611H49.8194L46.5462 63.9667V63.9944L52.1495 67.9611H54.3964L47.9609 62.1914L59.3894 67.9611H60.9151L49.0982 60.1942V60.2219L68.1827 66.4632L49.9304 58.0583V58.086L69.7361 61.4424L50.4297 55.8391V55.8669L70.5405 56.2275L50.5961 53.5645L70.5405 50.9571L50.4297 51.2899L69.7361 45.7421L49.9304 49.0431V49.0708L68.1827 40.6936L49.0705 46.9349H49.0982L65.8803 35.9502L47.9332 44.9377V44.9654L62.9123 31.5952L46.5185 43.1624L59.3339 27.7395L44.8264 41.609L55.2008 24.4663L42.9401 40.3053L50.6239 21.8311L40.8597 39.3067L45.6863 19.8893L38.6683 38.6409L40.5546 18.7243L36.3937 38.3081L35.2842 18.3359Z" fill="#E7EAEB" stroke="#E7EAEB" stroke-width="0.0762"/>
<path fill-rule="evenodd" clip-rule="evenodd" d="M20.6928 25.409C18.5569 24.6045 16.8926 22.6073 16.8926 19.9166C16.8926 18.28 17.5583 16.7544 18.7234 15.6726C17.9744 11.5394 20.3045 7.29537 24.3266 5.79746L24.8537 5.60329C26.1574 2.2746 29.4029 0 33.0644 0C35.5055 0 37.8078 0.998606 39.4722 2.74617C40.0824 2.52425 40.7204 2.4133 41.3862 2.4133C43.744 2.4133 45.7967 3.71703 46.7398 5.90842C46.934 6.3245 47.0449 6.76833 47.1281 7.21215C50.1517 8.01659 52.454 10.3189 53.3139 13.3425C54.2016 16.5047 53.2862 19.8612 50.9007 22.108L50.8174 22.1912C51.289 23.2731 51.5386 24.4658 51.5386 25.6864C51.5386 30.5407 47.5997 34.5074 42.7176 34.5074C39.6663 34.5074 36.8924 32.9263 35.3113 30.4575C30.457 34.9512 21.8301 32.5379 20.6651 25.409H20.6928Z" fill="#93A2AB"/>
<path fill-rule="evenodd" clip-rule="evenodd" d="M22.0519 24.9649C22.995 31.8997 32.0657 33.675 35.6718 27.8775C36.6149 30.9011 39.4166 33.0925 42.7452 33.0925C46.8229 33.0925 50.1516 29.7638 50.1516 25.6861C50.1516 22.4684 48.0711 19.639 45.0476 18.6404C46.9893 18.8068 48.7091 19.7222 49.9574 21.0814C54.2015 17.0593 52.2875 9.76391 46.4623 8.48792C46.2404 9.56974 45.6301 10.5129 44.7979 11.1509L44.9921 10.9012C47.0448 8.15505 45.2695 3.82776 41.4138 3.82776C39.5275 3.82776 37.8909 5.02053 37.2529 6.74036C37.3361 5.60306 37.8354 4.60445 38.6121 3.85549C37.2529 2.32985 35.2834 1.38672 33.092 1.38672C29.5692 1.38672 26.6288 3.85549 25.8799 7.1287C25.4915 8.87626 25.8522 10.929 26.6843 12.5101L26.7953 12.7043C25.4361 11.2618 24.6594 9.20913 24.8258 7.10096C21.2197 8.43244 19.167 12.4546 20.3043 16.1994C19.0838 17.0038 18.3071 18.363 18.3071 19.9164C18.3071 23.8276 22.7454 25.6307 25.547 23.356C24.7149 24.3547 23.4389 24.9649 22.0519 24.9372V24.9649Z" fill="#FEFEFE"/>
<path fill-rule="evenodd" clip-rule="evenodd" d="M46.1572 9.40319C48.8201 10.4018 50.7341 12.9538 50.7341 15.9773C50.7341 17.6417 50.1516 19.1673 49.1807 20.3601C49.4581 20.582 49.7078 20.8317 49.9297 21.1091C54.1738 17.0869 52.2598 9.79153 46.4346 8.51554C46.3791 8.82067 46.2681 9.1258 46.1572 9.43093V9.40319ZM40.8036 4.38242C43.4388 4.38242 45.5747 6.51833 45.5747 9.15354C45.5747 9.40319 45.5469 9.65284 45.5192 9.90249C46.5733 7.23954 44.798 3.82764 41.3861 3.82764C40.1933 3.82764 39.0837 4.2992 38.2793 5.10363C39.0005 4.65981 39.8882 4.38242 40.8036 4.38242Z" fill="#E7EAEB"/>
<path fill-rule="evenodd" clip-rule="evenodd" d="M25.7133 27.8504C24.8257 26.9628 24.1599 25.8532 23.8548 24.605C23.3 24.8269 22.6898 24.9656 22.0518 24.9378C22.3014 26.7686 23.1336 28.2665 24.2709 29.3206C24.7147 28.7936 25.214 28.2943 25.7133 27.8504Z" fill="#E5E8EA"/>
<path fill-rule="evenodd" clip-rule="evenodd" d="M25.4083 17.4755C24.0214 17.6697 22.7176 17.6697 21.081 16.893C18.6955 20.1939 20.2489 24.7709 25.5193 23.4117C22.6899 25.6308 18.3071 23.8277 18.3071 19.9443C18.3071 17.7529 19.1116 16.8652 20.0824 15.1454C19.6109 11.7335 21.6081 8.34935 24.8535 7.12884C24.7981 8.01649 24.8813 8.90414 25.1309 9.73631C21.192 11.0123 20.3321 16.2272 25.4361 17.5032L25.4083 17.4755ZM32.3986 2.46867C34.5345 2.46867 36.4762 3.43954 37.7522 4.96519C37.9741 4.5491 38.2515 4.1885 38.6121 3.85563C34.7009 -0.499405 27.6275 1.22042 26.0186 6.62953C27.1004 4.1885 29.5692 2.46867 32.4263 2.46867H32.3986Z" fill="#E7EAEB"/>
<path fill-rule="evenodd" clip-rule="evenodd" d="M50.1513 25.6864C50.1513 22.6351 48.265 19.889 45.4634 18.8071C47.0168 20.0831 48.0154 22.0526 48.0154 24.2162C48.0154 26.1025 47.2664 27.8223 46.0459 29.0706C46.6562 29.7363 47.1832 30.4575 47.6548 31.2342C49.1804 29.875 50.1513 27.9055 50.1513 25.6864Z" fill="#E7EAEB"/>
<path fill-rule="evenodd" clip-rule="evenodd" d="M36.4477 21.0264C37.7514 21.0264 38.8055 22.0805 38.8055 23.3842C38.8055 24.6879 37.7514 25.742 36.4477 25.742C35.1439 25.742 34.0898 24.6879 34.0898 23.3842C34.0898 22.0805 35.1439 21.0264 36.4477 21.0264Z" fill="white"/>
<path fill-rule="evenodd" clip-rule="evenodd" d="M32.4537 8.82056C33.591 8.82056 34.6451 9.29212 35.3941 10.0688C34.34 10.5681 33.5356 11.5112 33.2304 12.6485C33.813 11.6777 34.8116 10.9842 35.9489 10.7623C38.2789 10.3185 40.3871 11.8996 40.7755 14.0632H28.7367L28.2374 19.8884C27.4052 19.5833 26.6563 19.0008 26.1292 18.1409C24.1875 14.9231 27.322 10.8732 31.0113 12.177C30.4011 11.6499 29.6244 11.2893 28.7922 11.1784C29.4579 9.79142 30.8726 8.8483 32.4815 8.8483L32.4537 8.82056ZM41.247 14.0355C41.3025 13.3975 41.1915 12.7318 40.9142 12.1215C43.5771 10.901 46.7116 12.8427 46.7116 15.8663C46.7116 17.5306 45.824 18.7511 44.6589 19.4169L44.1874 14.0632H41.247V14.0355Z" fill="#E7EAEB"/>
<path fill-rule="evenodd" clip-rule="evenodd" d="M29.5973 11.9285C27.3781 11.9285 25.5474 13.7315 25.5474 15.9784C25.5474 18.1975 27.3504 20.0283 29.5973 20.0283C31.8164 20.0283 33.6472 18.2252 33.6472 15.9784C33.6472 13.7592 31.8441 11.9285 29.5973 11.9285Z" fill="#E7EAEB"/>
<path fill-rule="evenodd" clip-rule="evenodd" d="M42.7182 11.6223C40.4436 11.6223 38.6128 13.4531 38.6128 15.7277C38.6128 18.0023 40.4436 19.8331 42.7182 19.8331C44.9928 19.8331 46.8236 18.0023 46.8236 15.7277C46.8236 13.4531 44.9928 11.6223 42.7182 11.6223Z" fill="#E7EAEB"/>
<path fill-rule="evenodd" clip-rule="evenodd" d="M36.5876 14.3965L39.0564 18.5019C40.4988 17.642 41.3865 16.0609 41.3865 14.3965C41.3865 11.7613 39.2506 9.59766 36.5876 9.59766C36.5044 9.59766 36.4489 9.59766 36.3657 9.59766L36.5876 14.3965Z" fill="#FEFEFE"/>
<path fill-rule="evenodd" clip-rule="evenodd" d="M36.6432 10.3188C34.424 10.3188 32.5933 12.1219 32.5933 14.3687C32.5933 16.5879 34.3963 18.4187 36.6432 18.4187C38.8623 18.4187 40.6931 16.6156 40.6931 14.3687C40.6931 12.1496 38.89 10.3188 36.6432 10.3188Z" fill="#E7EAEB"/>
<path fill-rule="evenodd" clip-rule="evenodd" d="M20.1108 63.7441H25.4645L11.5394 75.9215H59.001L44.9928 63.6609H50.3464L70.5404 81.3307H65.1868L62.4129 78.9174H8.12754L5.35364 81.3307H0L20.1108 63.7441Z" fill="#1A2F44"/>
<path fill-rule="evenodd" clip-rule="evenodd" d="M15.8109 42.2742H55.0617L59.3613 59.7498H11.123L15.8109 42.2742Z" fill="#1A2F44"/>
<path fill-rule="evenodd" clip-rule="evenodd" d="M17.7529 44.6326H52.9538L56.6431 58.6963L35.1176 55.9778L13.814 58.6963L17.7529 44.6326Z" fill="#D72024"/>
<path fill-rule="evenodd" clip-rule="evenodd" d="M62.0522 59.3612L62.9122 71.0394L35.395 80.1655L7.57275 70.9284L8.79327 59.3612L35.1454 55.9771L62.0522 59.3612Z" fill="#1A2F44"/>
<path d="M59.9717 61.137L59.6111 61.1093L57.6416 60.9151L58.1687 68.1828L56.2824 68.7098L55.7276 60.7487L53.3698 60.5268L53.8691 69.431L51.9829 69.9581L51.4281 60.3603L49.0703 60.1384L49.5418 70.6793L47.6278 71.234L47.1563 59.972L44.7984 59.7501L45.1591 71.9553L43.2728 72.51L42.8844 59.5836L40.5544 59.3617L40.7485 73.2313L38.8345 73.786L38.6404 59.1953L37.0592 59.0289L36.3103 58.9734V74.5073L35.3394 74.7846L34.3963 74.5073V58.9734L33.6473 59.0289L32.0662 59.1953L31.8443 73.786L29.9303 73.2313L30.1522 59.3617L27.7944 59.5836L27.4338 72.51L25.5198 71.9553L25.8804 59.7501L23.5503 59.972L23.051 71.234L21.1648 70.6793L21.6086 60.1384L19.2508 60.3603L18.696 69.9581L16.8097 69.431L17.3368 60.5268L14.979 60.7487L14.3964 68.7098L12.5102 68.1828L13.0372 60.9151L11.0955 61.1093L10.7071 61.137L10.0137 69.7084L35.3394 77.0315L60.7761 69.6529L59.9717 61.137Z" fill="#FEFEFE"/>
<path fill-rule="evenodd" clip-rule="evenodd" d="M50.9552 47.1011C51.4823 47.1011 51.9261 47.5449 51.9261 48.0719C51.9261 48.599 51.4823 49.0428 50.9552 49.0428C50.4282 49.0428 49.9844 48.599 49.9844 48.0719C49.9844 47.5449 50.4282 47.1011 50.9552 47.1011Z" fill="#FEFEFE"/>
<path d="M51.5378 48.4048C51.5378 48.599 51.4824 48.7654 51.3991 48.9319C51.732 48.7654 51.9262 48.4603 51.9262 48.0719C51.9262 47.5449 51.4824 47.1011 50.9553 47.1011C50.6224 47.1011 50.3173 47.2675 50.1509 47.5449C50.2896 47.4894 50.4283 47.4339 50.567 47.4339C51.094 47.4339 51.5378 47.8778 51.5378 48.4048Z" fill="#E7EAEB"/>
<path fill-rule="evenodd" clip-rule="evenodd" d="M19.5285 47.1011C20.0555 47.1011 20.4994 47.5449 20.4994 48.0719C20.4994 48.599 20.0555 49.0428 19.5285 49.0428C19.0014 49.0428 18.5576 48.599 18.5576 48.0719C18.5576 47.5449 19.0014 47.1011 19.5285 47.1011Z" fill="#FEFEFE"/>
<path d="M20.0823 48.4048C20.0823 48.599 20.0268 48.7654 19.9436 48.9319C20.2764 48.7654 20.4706 48.4603 20.4706 48.0719C20.4706 47.5449 20.0268 47.1011 19.4997 47.1011C19.1669 47.1011 18.8617 47.2675 18.6953 47.5449C18.834 47.4894 18.9727 47.4339 19.1114 47.4339C19.6384 47.4339 20.0823 47.8778 20.0823 48.4048Z" fill="#E7EAEB"/>
<path fill-rule="evenodd" clip-rule="evenodd" d="M29.1255 53.9245L15.4224 55.783L15.0063 56.8648L31.095 54.8399C30.4293 54.5625 29.7635 54.2573 29.1533 53.8967L29.1255 53.9245Z" fill="#FEFEFE"/>
<path fill-rule="evenodd" clip-rule="evenodd" d="M41.6916 53.9245L55.3947 55.783L55.8108 56.8648L39.7222 54.8399C40.3879 54.5625 41.0536 54.2573 41.6639 53.8967L41.6916 53.9245Z" fill="#FEFEFE"/>
<path fill-rule="evenodd" clip-rule="evenodd" d="M27.3496 50.8737L13.6466 52.7322L13.2305 53.814L29.3191 51.7891C28.6534 51.5117 27.9876 51.2066 27.3774 50.8459L27.3496 50.8737Z" fill="#1A2F44"/>
<path fill-rule="evenodd" clip-rule="evenodd" d="M43.134 50.8737L56.8371 52.7322L57.2532 53.814L41.1646 51.7891C41.8303 51.5117 42.496 51.2066 43.1063 50.8459L43.134 50.8737Z" fill="#1A2F44"/>
<path fill-rule="evenodd" clip-rule="evenodd" d="M26.7118 13.592H43.7435L44.5202 22.3576L43.0778 23.3284L42.8281 26.5184L27.6549 26.5462L27.4052 23.3007L25.9351 22.4408L26.7118 13.592Z" fill="#1A2F44" stroke="#2B2A29" stroke-width="0.0762"/>
<path fill-rule="evenodd" clip-rule="evenodd" d="M28.1827 15.3674H42.1632L42.718 21.47L41.3587 22.3299L41.1091 25.6864H29.32L29.0703 22.3299L27.7666 21.47L28.1827 15.3674Z" fill="#D72024"/>
<path fill-rule="evenodd" clip-rule="evenodd" d="M35.2287 24.1331C43.6337 24.1331 50.4575 30.9569 50.4575 39.3618C50.4575 47.7667 43.6337 54.5905 35.2287 54.5905C26.8238 54.5905 20 47.7667 20 39.3618C20 30.9569 26.8238 24.1331 35.2287 24.1331Z" fill="#1A2F44"/>
<path fill-rule="evenodd" clip-rule="evenodd" d="M35.2286 26.3796C42.3852 26.3796 48.1827 32.1771 48.1827 39.3338C48.1827 46.4905 42.3852 52.2879 35.2286 52.2879C28.0719 52.2879 22.2744 46.4905 22.2744 39.3338C22.2744 32.1771 28.0719 26.3796 35.2286 26.3796Z" fill="#D72024"/>
<path fill-rule="evenodd" clip-rule="evenodd" d="M35.2007 31.1785C39.7222 31.1785 43.356 34.84 43.356 39.3337C43.356 43.8552 39.6944 47.489 35.2007 47.489C30.6792 47.489 27.0454 43.8275 27.0454 39.3337C27.0454 34.8123 30.707 31.1785 35.2007 31.1785Z" fill="#1A2F44"/>
<path fill-rule="evenodd" clip-rule="evenodd" d="M35.2553 33.5085C38.473 33.5085 41.1082 36.116 41.1082 39.3615C41.1082 42.5792 38.5008 45.2144 35.2553 45.2144C32.0376 45.2144 29.4023 42.607 29.4023 39.3615C29.4023 36.1438 32.0098 33.5085 35.2553 33.5085Z" fill="#FEFEFE"/>
<path fill-rule="evenodd" clip-rule="evenodd" d="M35.2563 37.5867C36.2271 37.5867 37.0316 38.3634 37.0316 39.362C37.0316 40.3328 36.2549 41.1373 35.2563 41.1373C34.2854 41.1373 33.481 40.3606 33.481 39.362C33.481 38.3911 34.2577 37.5867 35.2563 37.5867Z" fill="#1A2F44"/>
<path fill-rule="evenodd" clip-rule="evenodd" d="M35.2274 17.7805C33.2024 17.7805 31.5381 19.4449 31.5381 21.4698C31.5381 23.4948 33.2024 25.1591 35.2274 25.1591C37.2523 25.1591 38.9167 23.4948 38.9167 21.4698C38.9167 19.4449 37.2523 17.7805 35.2274 17.7805Z" fill="#1A2F44"/>
<path fill-rule="evenodd" clip-rule="evenodd" d="M35.2284 19.5283C34.1465 19.5283 33.2866 20.3882 33.2866 21.4701C33.2866 22.5519 34.1465 23.4118 35.2284 23.4118C36.3102 23.4118 37.1701 22.5519 37.1701 21.4701C37.1701 20.3882 36.3102 19.5283 35.2284 19.5283Z" fill="#FEFEFE"/>
<path fill-rule="evenodd" clip-rule="evenodd" d="M35.2281 20.4441C35.7829 20.4441 36.2267 20.8879 36.2267 21.4427C36.2267 21.9975 35.7829 22.4413 35.2281 22.4413C34.6733 22.4413 34.2295 21.9975 34.2295 21.4427C34.2295 20.8879 34.6733 20.4441 35.2281 20.4441Z" fill="#1A2F44" stroke="#1A2F44" stroke-width="0.2"/>
</svg>

<svg width="71" height="82" fill="none" xmlns="http://www.w3.org/2000/svg"><path fill-rule="evenodd" clip-rule="evenodd" d="M35.284 18.336l-1.193 19.972h.028l-4.105-19.584 1.803 19.917h.027l-6.99-18.752 4.771 19.445h.028l-9.708-17.503 7.628 18.502-12.206-15.867 10.32 17.17L11.233 27.74l12.76 15.451h.028L7.628 31.595 22.58 44.993v-.028L4.66 35.95l16.782 11.013-19.084-6.27L20.61 49.1.805 45.742l19.306 5.603v-.027l-20.083-.36 19.917 2.662v-.028L.027 56.228l20.083-.333v-.028L.805 61.442l19.833-3.328h-.028l-18.252 8.35L21.47 60.25 9.515 68.044h1.47l11.622-5.825-6.435 5.742h2.275l5.603-3.939h-.028l-3.273 3.94h2.496l2.47-2.386-1.443 2.385h2.496l.832-1.082v-.028l-.443 1.11h2.468l.056-.083v-.028l-.028.111h11.29l-.028-.11.056.11h2.468l-.471-1.11.86 1.11h2.496l-1.47-2.413 2.497 2.413h2.468l-3.273-3.994v.027l5.604 3.967h2.246l-6.435-5.77 11.428 5.77h1.526l-11.817-7.767v.028l19.085 6.241-18.253-8.405v.028l19.806 3.356L50.43 55.84v.028l20.11.36-19.944-2.662 19.944-2.608-20.11.333 19.306-5.548-19.806 3.301v.028l18.253-8.377-19.113 6.24h.028L65.88 35.95l-17.947 8.988v.027l14.98-13.37-16.394 11.567L59.334 27.74 44.826 41.608l10.375-17.143-12.26 15.84 7.683-18.475-9.764 17.476 4.826-19.418-7.018 18.752 1.887-19.917-4.161 19.584-1.11-19.972z" fill="#E7EAEB" stroke="#E7EAEB" stroke-width=".076"/><path fill-rule="evenodd" clip-rule="evenodd" d="M20.693 25.409c-2.136-.804-3.8-2.802-3.8-5.492 0-1.637.665-3.163 1.83-4.244-.749-4.134 1.582-8.378 5.604-9.876l.527-.194A8.84 8.84 0 0133.064 0a8.83 8.83 0 016.408 2.746 5.556 5.556 0 011.914-.333c2.358 0 4.41 1.304 5.354 3.495.194.416.305.86.388 1.304 3.024.805 5.326 3.107 6.186 6.13.888 3.163-.028 6.52-2.413 8.766l-.084.083a8.757 8.757 0 01.722 3.495c0 4.855-3.94 8.821-8.821 8.821a8.81 8.81 0 01-7.407-4.05c-4.854 4.494-13.48 2.08-14.646-5.048h.028z" fill="#93A2AB"/><path fill-rule="evenodd" clip-rule="evenodd" d="M22.052 24.965c.943 6.935 10.014 8.71 13.62 2.913.943 3.023 3.745 5.215 7.073 5.215 4.078 0 7.407-3.33 7.407-7.407a7.43 7.43 0 00-5.104-7.046c1.941.167 3.661 1.082 4.91 2.441 4.244-4.022 2.33-11.317-3.496-12.593a4.507 4.507 0 01-1.664 2.663l.194-.25c2.053-2.746.278-7.073-3.578-7.073a4.445 4.445 0 00-4.161 2.912 4.424 4.424 0 011.36-2.885 7.359 7.359 0 00-5.521-2.468c-3.523 0-6.463 2.468-7.212 5.742-.389 1.747-.028 3.8.804 5.381l.111.194a7.393 7.393 0 01-1.97-5.603c-3.605 1.331-5.658 5.354-4.52 9.098a4.419 4.419 0 00-1.998 3.717c0 3.912 4.438 5.715 7.24 3.44a4.432 4.432 0 01-3.495 1.581v.028z" fill="#FEFEFE"/><path fill-rule="evenodd" clip-rule="evenodd" d="M46.157 9.403c2.663.999 4.577 3.55 4.577 6.574 0 1.665-.582 3.19-1.553 4.383.277.222.527.472.749.75 4.244-4.023 2.33-11.318-3.495-12.594-.056.305-.167.61-.278.915v-.028zm-5.353-5.02a4.77 4.77 0 014.77 4.77c0 .25-.027.5-.055.75 1.054-2.663-.721-6.075-4.133-6.075a4.384 4.384 0 00-3.107 1.276 4.874 4.874 0 012.525-.722z" fill="#E7EAEB"/><path fill-rule="evenodd" clip-rule="evenodd" d="M25.713 27.85c-.887-.887-1.553-1.997-1.858-3.245a4.347 4.347 0 01-1.803.333c.25 1.83 1.082 3.329 2.219 4.383.444-.527.943-1.027 1.442-1.47z" fill="#E5E8EA"/><path fill-rule="evenodd" clip-rule="evenodd" d="M25.408 17.476c-1.387.194-2.69.194-4.327-.583-2.386 3.3-.832 7.878 4.438 6.519-2.83 2.219-7.212.416-7.212-3.468 0-2.191.805-3.079 1.775-4.799-.471-3.412 1.526-6.796 4.771-8.016a7.471 7.471 0 00.278 2.607c-3.939 1.276-4.799 6.491.305 7.767l-.028-.027zm6.99-15.007c2.136 0 4.078.97 5.354 2.496.222-.416.5-.776.86-1.11C34.701-.498 27.627 1.22 26.02 6.63a7.02 7.02 0 016.407-4.161H32.4zm17.753 23.217c0-3.05-1.886-5.797-4.688-6.879a7.018 7.018 0 012.552 5.41 6.928 6.928 0 01-1.97 4.854 13.62 13.62 0 011.61 2.163 7.398 7.398 0 002.496-5.548z" fill="#E7EAEB"/><path fill-rule="evenodd" clip-rule="evenodd" d="M36.448 21.026a2.356 2.356 0 012.358 2.358 2.356 2.356 0 01-2.358 2.358 2.356 2.356 0 01-2.358-2.358 2.356 2.356 0 012.358-2.358z" fill="#fff"/><path fill-rule="evenodd" clip-rule="evenodd" d="M32.454 8.82c1.137 0 2.191.472 2.94 1.249a4.026 4.026 0 00-2.164 2.58 4.092 4.092 0 012.719-1.887c2.33-.444 4.438 1.138 4.827 3.301h-12.04l-.499 5.825a4.132 4.132 0 01-2.108-1.747c-1.942-3.218 1.193-7.268 4.882-5.964a4.282 4.282 0 00-2.219-.999 4.1 4.1 0 013.69-2.33l-.028-.027zm8.793 5.216a3.844 3.844 0 00-.333-1.915c2.663-1.22 5.798.722 5.798 3.745 0 1.665-.888 2.885-2.053 3.55l-.472-5.353h-2.94v-.027z" fill="#E7EAEB"/><path fill-rule="evenodd" clip-rule="evenodd" d="M29.597 11.928a4.055 4.055 0 00-4.05 4.05c0 2.22 1.803 4.05 4.05 4.05 2.22 0 4.05-1.803 4.05-4.05a4.055 4.055 0 00-4.05-4.05zm13.121-.306a4.096 4.096 0 00-4.105 4.106 4.096 4.096 0 004.105 4.105 4.096 4.096 0 004.106-4.105 4.096 4.096 0 00-4.106-4.106z" fill="#E7EAEB"/><path fill-rule="evenodd" clip-rule="evenodd" d="M36.588 14.396l2.468 4.106a4.807 4.807 0 002.33-4.105 4.8 4.8 0 00-4.798-4.8h-.222l.222 4.8z" fill="#FEFEFE"/><path fill-rule="evenodd" clip-rule="evenodd" d="M36.643 10.319a4.055 4.055 0 00-4.05 4.05 4.055 4.055 0 004.05 4.05c2.22 0 4.05-1.803 4.05-4.05 0-2.22-1.803-4.05-4.05-4.05z" fill="#E7EAEB"/><path fill-rule="evenodd" clip-rule="evenodd" d="M20.11 63.744h5.355L11.539 75.921h47.462l-14.008-12.26h5.353L70.54 81.33h-5.353l-2.774-2.414H8.128L5.354 81.33H0l20.11-17.587zm-4.3-21.47h39.252l4.3 17.476h-48.24l4.688-17.476z" fill="#1A2F44"/><path fill-rule="evenodd" clip-rule="evenodd" d="M17.753 44.633h35.2l3.69 14.063-21.525-2.718-21.304 2.718 3.939-14.063z" fill="#D72024"/><path fill-rule="evenodd" clip-rule="evenodd" d="M62.052 59.361l.86 11.678-27.517 9.126-27.822-9.237 1.22-11.567 26.352-3.384 26.907 3.384z" fill="#1A2F44"/><path d="M59.972 61.137l-.36-.028-1.97-.194.527 7.268-1.887.527-.554-7.961-2.358-.222.5 8.904-1.887.527-.555-9.598-2.358-.222.472 10.541-1.914.555-.472-11.262-2.358-.222.361 12.205-1.886.555-.389-12.926-2.33-.222.194 13.87-1.913.554-.195-14.59-1.58-.167-.75-.056v15.534l-.97.278-.944-.278V58.973l-.749.056-1.58.166-.223 14.591-1.914-.555.222-13.87-2.358.223-.36 12.926-1.914-.555.36-12.205-2.33.222-.499 11.262-1.886-.555.444-10.54-2.358.221-.555 9.598-1.886-.527.527-8.904-2.358.222-.583 7.96-1.886-.526.527-7.268-1.942.194-.388.028-.693 8.571 25.325 7.323 25.437-7.378-.804-8.516z" fill="#FEFEFE"/><path fill-rule="evenodd" clip-rule="evenodd" d="M50.955 47.101c.527 0 .971.444.971.97a.983.983 0 01-.97.972.983.983 0 01-.972-.971c0-.527.444-.97.971-.97z" fill="#FEFEFE"/><path d="M51.538 48.405c0 .194-.056.36-.139.527a.923.923 0 00.527-.86.983.983 0 00-.97-.97.93.93 0 00-.805.443c.139-.056.277-.111.416-.111.527 0 .97.444.97.97z" fill="#E7EAEB"/><path fill-rule="evenodd" clip-rule="evenodd" d="M19.529 47.101c.526 0 .97.444.97.97a.983.983 0 01-.97.972.983.983 0 01-.971-.971c0-.527.443-.97.97-.97z" fill="#FEFEFE"/><path d="M20.082 48.405c0 .194-.055.36-.138.527a.923.923 0 00.527-.86.983.983 0 00-.971-.97.93.93 0 00-.805.443c.139-.056.278-.111.416-.111.527 0 .971.444.971.97z" fill="#E7EAEB"/><path fill-rule="evenodd" clip-rule="evenodd" d="M29.125 53.925l-13.703 1.858-.416 1.082 16.089-2.025a15.694 15.694 0 01-1.942-.943l-.027.028zm12.567 0l13.703 1.858.416 1.082-16.089-2.025a15.7 15.7 0 001.942-.943l.028.028z" fill="#FEFEFE"/><path fill-rule="evenodd" clip-rule="evenodd" d="M27.35 50.874l-13.703 1.858-.417 1.082 16.09-2.025a15.68 15.68 0 01-1.943-.943l-.027.028zm15.784 0l13.703 1.858.416 1.082-16.088-2.025a15.687 15.687 0 001.941-.943l.028.028z" fill="#1A2F44"/><path fill-rule="evenodd" clip-rule="evenodd" d="M26.712 13.592h17.031l.777 8.766-1.442.97-.25 3.19-15.173.028-.25-3.245-1.47-.86.777-8.849z" fill="#1A2F44" stroke="#2B2A29" stroke-width=".076"/><path fill-rule="evenodd" clip-rule="evenodd" d="M28.183 15.367h13.98l.555 6.103-1.36.86-.249 3.356H29.32l-.25-3.356-1.303-.86.416-6.103z" fill="#D72024"/><path fill-rule="evenodd" clip-rule="evenodd" d="M35.229 24.133c8.405 0 15.229 6.824 15.229 15.229S43.634 54.59 35.228 54.59C26.825 54.59 20 47.767 20 39.362s6.824-15.229 15.229-15.229z" fill="#1A2F44"/><path fill-rule="evenodd" clip-rule="evenodd" d="M35.229 26.38c7.156 0 12.954 5.797 12.954 12.954 0 7.156-5.798 12.954-12.954 12.954-7.157 0-12.955-5.797-12.955-12.954 0-7.157 5.798-12.954 12.955-12.954z" fill="#D72024"/><path fill-rule="evenodd" clip-rule="evenodd" d="M35.2 31.178a8.15 8.15 0 018.156 8.156 8.15 8.15 0 01-8.155 8.155 8.15 8.15 0 01-8.156-8.155 8.15 8.15 0 018.156-8.156z" fill="#1A2F44"/><path fill-rule="evenodd" clip-rule="evenodd" d="M35.255 33.508a5.854 5.854 0 010 11.706 5.854 5.854 0 010-11.706z" fill="#FEFEFE"/><path fill-rule="evenodd" clip-rule="evenodd" d="M35.256 37.587a1.77 1.77 0 011.776 1.775 1.77 1.77 0 01-1.776 1.775 1.77 1.77 0 01-1.775-1.775c0-.97.777-1.775 1.775-1.775zm-.029-19.807a3.706 3.706 0 00-3.689 3.69 3.705 3.705 0 003.69 3.69 3.706 3.706 0 003.689-3.69 3.706 3.706 0 00-3.69-3.69z" fill="#1A2F44"/><path fill-rule="evenodd" clip-rule="evenodd" d="M35.228 19.528a1.93 1.93 0 00-1.941 1.942 1.93 1.93 0 001.941 1.942 1.93 1.93 0 001.942-1.942 1.93 1.93 0 00-1.942-1.942z" fill="#FEFEFE"/><path fill-rule="evenodd" clip-rule="evenodd" d="M35.228 20.444c.555 0 .999.444.999.999a.994.994 0 01-.999.998.994.994 0 01-.998-.998c0-.555.443-.999.998-.999z" fill="#1A2F44" stroke="#1A2F44" stroke-width=".2"/></svg>
